src/lib/packages/icons/src/assets/filled/home-roof-activity.svg

<svg width="24" height="24" viewBox="0 0 24 24" fill="none" xmlns="http://www.w3.org/2000/svg">
<path d="M21.477 9.08502L14.0649 2.98907C12.8679 2.00707 11.133 2.00607 9.93598 2.98907L2.52399 9.08404C2.20499 9.34704 2.15796 9.81907 2.42096 10.1401C2.68396 10.4611 3.15799 10.5051 3.47699 10.2431L4.49994 9.40106V18.0001C4.49994 20.2901 5.70994 21.5001 7.99994 21.5001H15.9999C18.2899 21.5001 19.4999 20.2901 19.4999 18.0001V9.40204L20.5229 10.2441C20.6629 10.3591 20.8319 10.4151 20.9999 10.4151C21.2159 10.4151 21.4309 10.322 21.5789 10.142C21.8429 9.82003 21.796 9.34802 21.477 9.08502ZM16.53 13.0171L14.295 15.252C14.003 15.544 13.6139 15.7061 13.1999 15.7061C13.1999 15.7061 13.1999 15.7061 13.1989 15.7061C12.7859 15.7061 12.3969 15.545 12.1039 15.253L10.833 13.9839L8.529 16.2161C8.383 16.3621 8.19097 16.4361 7.99897 16.4361C7.80697 16.4361 7.61494 16.3631 7.46894 16.2161C7.17594 15.9231 7.17594 15.4481 7.46894 15.1551L9.70099 12.9232C10.306 12.3202 11.2889 12.3192 11.8919 12.9222L13.1629 14.191L15.4689 11.9561C15.7619 11.6631 16.237 11.6631 16.53 11.9561C16.823 12.2491 16.823 12.7241 16.53 13.0171Z" fill="currentColor"/>
</svg>

<svg xmlns="http://www.w3.org/2000/svg" width="24" height="24" fill="none"><path fill="currentColor" d="m21.477 9.085-7.412-6.096a3.26 3.26 0 0 0-4.129 0L2.524 9.084a.751.751 0 0 0 .953 1.16L4.5 9.4V18c0 2.29 1.21 3.5 3.5 3.5h8c2.29 0 3.5-1.21 3.5-3.5V9.401l1.023.842a.749.749 0 0 0 1.056-.102.751.751 0 0 0-.102-1.057Zm-4.947 3.932-2.235 2.235a1.54 1.54 0 0 1-1.095.454h-.001c-.413 0-.802-.161-1.095-.453l-1.271-1.27-2.304 2.233a.748.748 0 0 1-1.06 0 .75.75 0 0 1 0-1.06L9.7 12.922a1.553 1.553 0 0 1 2.19 0l1.272 1.268 2.306-2.235a.75.75 0 0 1 1.061 1.061Z"/></svg>
